X: 34
T: The Peacock Followed the Hen
C: Traditional
O: England
R: slip jig
M: 9/8
L: 1/8
K: Ador
|:"Am" cde cAA cAA|cde cAA "G" B2G|"Am" cde cAA cAA|"G" Bcd dgd B2G:|
|:"C" cde gee gee|cde geg "D" f2d|"C" cde gee gee|"G" Bcd dgd B2G:|

